icons/CodePen-Dark.svg

<svg width="256" height="256" viewBox="0 0 256 256" fill="none" xmlns="http://www.w3.org/2000/svg">
<rect width="256" height="256" rx="60" fill="#242938"/>
<path d="M229.015 88.5041L133.038 24.5191C129.762 22.5011 126.265 22.4861 122.962 24.5191L26.985 88.5041C24.525 90.1441 23 93.0751 23 96.0031V159.987C23 162.918 24.525 165.847 26.985 167.486L122.962 231.481C126.236 233.498 129.735 233.516 133.038 231.481L229.015 167.486C231.475 165.847 233 162.918 233 159.989V96.0041C233 93.0751 231.475 90.1441 229.015 88.5041ZM137.025 48.8931L207.687 96.0031L176.163 117.098L137.024 90.9631V48.8961L137.025 48.8931ZM118.976 48.8931V90.9641L79.834 117.097L48.311 96.0041L118.976 48.8931ZM41.047 112.877L63.664 127.995L41.047 143.114V112.877ZM118.976 207.098L48.311 159.987L79.834 138.894L118.976 165.027V207.098ZM128 149.323L96.126 127.995L128 106.667L159.874 127.995L128 149.323ZM137.024 207.098V165.027L176.163 138.894L207.687 159.987L137.025 207.098H137.024ZM214.954 143.114L192.336 127.995L214.954 112.879V143.114Z" fill="white"/>
</svg>

<svg xmlns="http://www.w3.org/2000/svg" width="256" height="256" fill="none" viewBox="0 0 256 256"><rect width="256" height="256" fill="#242938" rx="60"/><path fill="#fff" d="m229.02 88.5-95.98-63.98a9.1 9.1 0 0 0-10.08 0L27 88.5a9.2 9.2 0 0 0-4 7.5v64a9.2 9.2 0 0 0 3.98 7.5l95.98 64a9.1 9.1 0 0 0 10.08 0l95.98-64A9.2 9.2 0 0 0 233 160V96a9.2 9.2 0 0 0-3.99-7.5m-92-39.6L207.7 96l-31.53 21.1-39.14-26.14zm-18.04 0v42.06L79.83 117.1 48.31 96zm-77.93 63.98L63.66 128l-22.61 15.1zm77.93 94.22L48.3 159.99l31.52-21.1 39.15 26.14zm9.02-57.78L96.13 128 128 106.67 159.87 128zm9.02 57.78v-42.07l39.14-26.14L207.7 160zm77.93-63.99L192.34 128l22.61-15.11z"/></svg>
